X: 383
U:~=!turn!
M:C
L:1/8
K:D
f | d<dTd>B {/f}e>de<f | A<AB>A d2 d>f | d<dTd>B {/f}e>de<f | A<AB>A {/c}d3 ||
(f/2g/2) | (a>f){/c}d<f {/f}e>de<f | (a/2g/2).f.e {/c}d>A {/c}d>ef>d | g(a/2g/2) f/2a/2g/2f/2 {/f}e>de<f | A<AB>A {/c}d2 df |


